(Exported by FreeCAD)
(Post Processor: grbl_post)
(Output Time:2022-05-01 20:41:05.103646)
(Begin preamble)
G17 G90
G21
(Begin operation: Fixture)
(Path: Fixture)
G54
(Finish operation: Fixture)
(Begin operation: TC: Default Tool)
(Path: TC: Default Tool)
(TC: Default Tool)
(Begin toolchange)
( M6 T1.0 )
M3 S0.0
(Finish operation: TC: Default Tool)
(Begin operation: Profile001)
(Path: Profile001)
(Profile001)
(Compensated Tool Path. Diameter: 6.35)
G0 Z24.050
G0 X95.250 Y152.400
G0 Z22.050
G1 X95.250 Y152.400 Z16.050 F60000.000
G1 X95.250 Y152.400 Z16.050 F60000.000
G0 Z24.050
G0 X95.250 Y152.400
G0 Z22.050
G1 X95.250 Y152.400 Z13.050 F60000.000
G1 X95.250 Y152.400 Z13.050 F60000.000
G0 Z24.050
G0 X95.250 Y152.400
G0 Z22.050
G1 X95.250 Y152.400 Z10.050 F60000.000
G1 X95.250 Y152.400 Z10.050 F60000.000
G0 Z24.050
G0 X95.250 Y152.400
G0 Z22.050
G1 X95.250 Y152.400 Z7.050 F60000.000
G1 X95.250 Y152.400 Z7.050 F60000.000
G0 Z24.050
G0 X95.250 Y152.400
G0 Z22.050
G1 X95.250 Y152.400 Z4.050 F60000.000
G1 X95.250 Y152.400 Z4.050 F60000.000
G0 Z24.050
G0 X95.250 Y152.400
G0 Z22.050
G1 X95.250 Y152.400 Z1.050 F60000.000
G1 X95.250 Y152.400 Z1.050 F60000.000
G0 Z24.050
G0 X95.250 Y152.400
G0 Z22.050
G1 X95.250 Y152.400 Z-0.500 F60000.000
G1 X95.250 Y152.400 Z-0.500 F60000.000
G0 Z24.050
G0 Z24.050
(Finish operation: Profile001)
(Begin operation: Profile)
(Path: Profile)
(Profile)
(Compensated Tool Path. Diameter: 6.35)
G0 Z24.050
G0 X137.425 Y182.451
G0 Z22.050
G1 X137.425 Y182.451 Z16.050 F60000.000
G2 X95.324 Y100.602 Z16.050 I-42.165 J-30.064 K0.000 F60000.000
G1 X95.120 Y100.615 Z16.050 F60000.000
G2 X95.387 Y102.602 Z16.050 I0.139 J0.993 K0.000 F60000.000
G3 X130.564 Y187.511 Z16.050 I-0.135 J49.797 K0.000 F60000.000
G2 X131.771 Y189.112 Z16.050 I0.609 J0.797 K0.000 F60000.000
G2 X137.425 Y182.451 Z16.050 I-36.510 J-36.725 K0.000 F60000.000
G1 X137.425 Y182.451 Z13.050 F60000.000
G2 X95.324 Y100.602 Z13.050 I-42.165 J-30.064 K0.000 F60000.000
G1 X95.120 Y100.615 Z13.050 F60000.000
G2 X95.387 Y102.602 Z13.050 I0.139 J0.993 K0.000 F60000.000
G3 X130.564 Y187.511 Z13.050 I-0.135 J49.797 K0.000 F60000.000
G2 X131.771 Y189.112 Z13.050 I0.609 J0.797 K0.000 F60000.000
G2 X137.425 Y182.451 Z13.050 I-36.510 J-36.725 K0.000 F60000.000
G1 X137.425 Y182.451 Z10.050 F60000.000
G2 X95.324 Y100.602 Z10.050 I-42.165 J-30.064 K0.000 F60000.000
G1 X95.120 Y100.615 Z10.050 F60000.000
G2 X95.387 Y102.602 Z10.050 I0.139 J0.993 K0.000 F60000.000
G3 X130.564 Y187.511 Z10.050 I-0.135 J49.797 K0.000 F60000.000
G2 X131.771 Y189.112 Z10.050 I0.609 J0.797 K0.000 F60000.000
G2 X137.425 Y182.451 Z10.050 I-36.510 J-36.725 K0.000 F60000.000
G1 X137.425 Y182.451 Z7.050 F60000.000
G2 X95.324 Y100.602 Z7.050 I-42.165 J-30.064 K0.000 F60000.000
G1 X95.120 Y100.615 Z7.050 F60000.000
G2 X95.387 Y102.602 Z7.050 I0.139 J0.993 K0.000 F60000.000
G3 X130.564 Y187.511 Z7.050 I-0.135 J49.797 K0.000 F60000.000
G2 X131.771 Y189.112 Z7.050 I0.609 J0.797 K0.000 F60000.000
G2 X137.425 Y182.451 Z7.050 I-36.510 J-36.725 K0.000 F60000.000
G1 X137.425 Y182.451 Z4.050 F60000.000
G2 X95.324 Y100.602 Z4.050 I-42.165 J-30.064 K0.000 F60000.000
G1 X95.120 Y100.615 Z4.050 F60000.000
G2 X95.387 Y102.602 Z4.050 I0.139 J0.993 K0.000 F60000.000
G3 X130.564 Y187.511 Z4.050 I-0.135 J49.797 K0.000 F60000.000
G2 X131.771 Y189.112 Z4.050 I0.609 J0.797 K0.000 F60000.000
G2 X137.425 Y182.451 Z4.050 I-36.510 J-36.725 K0.000 F60000.000
G1 X137.425 Y182.451 Z1.050 F60000.000
G2 X95.324 Y100.602 Z1.050 I-42.165 J-30.064 K0.000 F60000.000
G1 X95.120 Y100.615 Z1.050 F60000.000
G2 X95.387 Y102.602 Z1.050 I0.139 J0.993 K0.000 F60000.000
G3 X130.564 Y187.511 Z1.050 I-0.135 J49.797 K0.000 F60000.000
G2 X131.771 Y189.112 Z1.050 I0.609 J0.797 K0.000 F60000.000
G2 X137.425 Y182.451 Z1.050 I-36.510 J-36.725 K0.000 F60000.000
G1 X137.425 Y182.451 Z-0.500 F60000.000
G2 X95.324 Y100.602 Z-0.500 I-42.165 J-30.064 K0.000 F60000.000
G1 X95.120 Y100.615 Z-0.500 F60000.000
G2 X95.387 Y102.602 Z-0.500 I0.139 J0.993 K0.000 F60000.000
G3 X130.564 Y187.511 Z-0.500 I-0.135 J49.797 K0.000 F60000.000
G2 X131.771 Y189.112 Z-0.500 I0.609 J0.797 K0.000 F60000.000
G2 X137.425 Y182.451 Z-0.500 I-36.510 J-36.725 K0.000 F60000.000
G0 Z24.050
G0 Z24.050
(Finish operation: Profile)
(Begin operation: Profile002)
(Path: Profile002)
(Profile002)
(Compensated Tool Path. Diameter: 6.35)
G0 Z24.050
G0 Y200.025
G0 Z22.050
G1 X0.000 Y200.025 Z16.050 F60000.000
G1 X190.500 Y200.025 Z16.050 F60000.000
G0 Z24.050
G0 Y200.025
G0 Z22.050
G1 X0.000 Y200.025 Z13.050 F60000.000
G1 X190.500 Y200.025 Z13.050 F60000.000
G0 Z24.050
G0 Y200.025
G0 Z22.050
G1 X0.000 Y200.025 Z10.050 F60000.000
G1 X190.500 Y200.025 Z10.050 F60000.000
G0 Z24.050
G0 Y200.025
G0 Z22.050
G1 X0.000 Y200.025 Z7.050 F60000.000
G1 X190.500 Y200.025 Z7.050 F60000.000
G0 Z24.050
G0 Y200.025
G0 Z22.050
G1 X0.000 Y200.025 Z4.050 F60000.000
G1 X190.500 Y200.025 Z4.050 F60000.000
G0 Z24.050
G0 Y200.025
G0 Z22.050
G1 X0.000 Y200.025 Z1.050 F60000.000
G1 X190.500 Y200.025 Z1.050 F60000.000
G0 Z24.050
G0 Y200.025
G0 Z22.050
G1 X0.000 Y200.025 Z-0.500 F60000.000
G1 X190.500 Y200.025 Z-0.500 F60000.000
G0 Z24.050
G0 Z24.050
(Finish operation: Profile002)
(Begin operation: Profile003)
(Path: Profile003)
(Profile003)
(Compensated Tool Path. Diameter: 6.35)
G0 Z24.050
G0 X190.500 Y-3.175
G0 Z22.050
G1 X190.500 Y-3.175 Z16.050 F60000.000
G1 X0.000 Y-3.175 Z16.050 F60000.000
G0 Z24.050
G0 X190.500 Y-3.175
G0 Z22.050
G1 X190.500 Y-3.175 Z13.050 F60000.000
G1 X0.000 Y-3.175 Z13.050 F60000.000
G0 Z24.050
G0 X190.500 Y-3.175
G0 Z22.050
G1 X190.500 Y-3.175 Z10.050 F60000.000
G1 X0.000 Y-3.175 Z10.050 F60000.000
G0 Z24.050
G0 X190.500 Y-3.175
G0 Z22.050
G1 X190.500 Y-3.175 Z7.050 F60000.000
G1 X0.000 Y-3.175 Z7.050 F60000.000
G0 Z24.050
G0 X190.500 Y-3.175
G0 Z22.050
G1 X190.500 Y-3.175 Z4.050 F60000.000
G1 X0.000 Y-3.175 Z4.050 F60000.000
G0 Z24.050
G0 X190.500 Y-3.175
G0 Z22.050
G1 X190.500 Y-3.175 Z1.050 F60000.000
G1 X0.000 Y-3.175 Z1.050 F60000.000
G0 Z24.050
G0 X190.500 Y-3.175
G0 Z22.050
G1 X190.500 Y-3.175 Z-0.500 F60000.000
G1 X0.000 Y-3.175 Z-0.500 F60000.000
G0 Z24.050
G0 Z24.050
(Finish operation: Profile003)
(Begin postamble)
M5
G17 G90
M2
