(Exported by FreeCAD)
(Post Processor: grbl_post)
(Output Time:2022-05-01 18:54:58.166950)
(Begin preamble)
G17 G90
G21
(Begin operation: Fixture)
(Path: Fixture)
G54
(Finish operation: Fixture)
(Begin operation: TC: Default Tool001)
(Path: TC: Default Tool001)
(TC: Default Tool001)
(Begin toolchange)
( M6 T1.0 )
M3 S0.0
(Finish operation: TC: Default Tool001)
(Begin operation: Profile004)
(Path: Profile004)
(Profile004)
(Compensated Tool Path. Diameter: 6.35)
G0 Z24.050
G0 X0.000 Y0.000
G0 X-0.000 Y0.000
G0 X-0.000 Y0.000 Z22.050
G1 X-0.000 Y0.000 Z16.050 F60000.000
G2 X0.000 Y0.000 Z16.050 I0.000 J-0.000 K0.000 F60000.000
G2 X0.000 Y-0.000 Z16.050 I-0.000 J-0.000 K0.000 F60000.000
G2 X-0.000 Y0.000 Z16.050 I-0.000 J0.000 K0.000 F60000.000
G1 X-0.000 Y0.000 Z13.050 F60000.000
G2 X0.000 Y0.000 Z13.050 I0.000 J-0.000 K0.000 F60000.000
G2 X0.000 Y-0.000 Z13.050 I-0.000 J-0.000 K0.000 F60000.000
G2 X-0.000 Y0.000 Z13.050 I-0.000 J0.000 K0.000 F60000.000
G1 X-0.000 Y0.000 Z10.050 F60000.000
G2 X0.000 Y0.000 Z10.050 I0.000 J-0.000 K0.000 F60000.000
G2 X0.000 Y-0.000 Z10.050 I-0.000 J-0.000 K0.000 F60000.000
G2 X-0.000 Y0.000 Z10.050 I-0.000 J0.000 K0.000 F60000.000
G1 X-0.000 Y0.000 Z7.050 F60000.000
G2 X0.000 Y0.000 Z7.050 I0.000 J-0.000 K0.000 F60000.000
G2 X0.000 Y-0.000 Z7.050 I-0.000 J-0.000 K0.000 F60000.000
G2 X-0.000 Y0.000 Z7.050 I-0.000 J0.000 K0.000 F60000.000
G1 X-0.000 Y0.000 Z4.050 F60000.000
G2 X0.000 Y0.000 Z4.050 I0.000 J-0.000 K0.000 F60000.000
G2 X0.000 Y-0.000 Z4.050 I-0.000 J-0.000 K0.000 F60000.000
G2 X-0.000 Y0.000 Z4.050 I-0.000 J0.000 K0.000 F60000.000
G1 X-0.000 Y0.000 Z1.050 F60000.000
G2 X0.000 Y0.000 Z1.050 I0.000 J-0.000 K0.000 F60000.000
G2 X0.000 Y-0.000 Z1.050 I-0.000 J-0.000 K0.000 F60000.000
G2 X-0.000 Y0.000 Z1.050 I-0.000 J0.000 K0.000 F60000.000
G1 X-0.000 Y0.000 Z-0.500 F60000.000
G2 X0.000 Y0.000 Z-0.500 I0.000 J-0.000 K0.000 F60000.000
G2 X0.000 Y-0.000 Z-0.500 I-0.000 J-0.000 K0.000 F60000.000
G2 X-0.000 Y0.000 Z-0.500 I-0.000 J0.000 K0.000 F60000.000
G0 Z24.050
G0 Z24.050
(Finish operation: Profile004)
(Begin operation: Profile005)
(Path: Profile005)
(Profile005)
(Compensated Tool Path. Diameter: 6.35)
G0 Z24.050
G0 X50.800 Y0.000
G0 X50.800 Y0.000
G0 X50.800 Y0.000 Z22.050
G1 X50.800 Y0.000 Z16.050 F60000.000
G2 X50.800 Y0.000 Z16.050 I0.000 J-0.000 K0.000 F60000.000
G2 X50.800 Y-0.000 Z16.050 I-0.000 J-0.000 K0.000 F60000.000
G2 X50.800 Y0.000 Z16.050 I-0.000 J0.000 K0.000 F60000.000
G1 X50.800 Y0.000 Z13.050 F60000.000
G2 X50.800 Y0.000 Z13.050 I0.000 J-0.000 K0.000 F60000.000
G2 X50.800 Y-0.000 Z13.050 I-0.000 J-0.000 K0.000 F60000.000
G2 X50.800 Y0.000 Z13.050 I-0.000 J0.000 K0.000 F60000.000
G1 X50.800 Y0.000 Z10.050 F60000.000
G2 X50.800 Y0.000 Z10.050 I0.000 J-0.000 K0.000 F60000.000
G2 X50.800 Y-0.000 Z10.050 I-0.000 J-0.000 K0.000 F60000.000
G2 X50.800 Y0.000 Z10.050 I-0.000 J0.000 K0.000 F60000.000
G1 X50.800 Y0.000 Z7.050 F60000.000
G2 X50.800 Y0.000 Z7.050 I0.000 J-0.000 K0.000 F60000.000
G2 X50.800 Y-0.000 Z7.050 I-0.000 J-0.000 K0.000 F60000.000
G2 X50.800 Y0.000 Z7.050 I-0.000 J0.000 K0.000 F60000.000
G1 X50.800 Y0.000 Z4.050 F60000.000
G2 X50.800 Y0.000 Z4.050 I0.000 J-0.000 K0.000 F60000.000
G2 X50.800 Y-0.000 Z4.050 I-0.000 J-0.000 K0.000 F60000.000
G2 X50.800 Y0.000 Z4.050 I-0.000 J0.000 K0.000 F60000.000
G1 X50.800 Y0.000 Z1.050 F60000.000
G2 X50.800 Y0.000 Z1.050 I0.000 J-0.000 K0.000 F60000.000
G2 X50.800 Y-0.000 Z1.050 I-0.000 J-0.000 K0.000 F60000.000
G2 X50.800 Y0.000 Z1.050 I-0.000 J0.000 K0.000 F60000.000
G1 X50.800 Y0.000 Z-0.500 F60000.000
G2 X50.800 Y0.000 Z-0.500 I0.000 J-0.000 K0.000 F60000.000
G2 X50.800 Y-0.000 Z-0.500 I-0.000 J-0.000 K0.000 F60000.000
G2 X50.800 Y0.000 Z-0.500 I-0.000 J0.000 K0.000 F60000.000
G0 Z24.050
G0 Z24.050
(Finish operation: Profile005)
(Begin operation: DressupTag)
(Path: DressupTag)
G0 Z24.050
G0 X47.146 Y47.146 Z24.050
G0 X47.146 Y47.146 Z22.050
G1 X47.146 Y47.146 Z16.050 F60000.000
G2 X3.558 Y-66.580 Z16.050 I-47.146 J-47.146 K0.000 F60000.000
G2 X-66.580 Y-3.558 Z16.050 I-3.558 J66.580 K0.000 F60000.000
G2 X-3.558 Y66.580 Z16.050 I66.580 J3.558 K0.000 F60000.000
G2 X47.146 Y47.146 Z16.050 I3.558 J-66.580 K0.000 F60000.000
G1 X47.146 Y47.146 Z13.050 F60000.000
G2 X3.558 Y-66.580 Z13.050 I-47.146 J-47.146 K0.000 F60000.000
G2 X-66.580 Y-3.558 Z13.050 I-3.558 J66.580 K0.000 F60000.000
G2 X-3.558 Y66.580 Z13.050 I66.580 J3.558 K0.000 F60000.000
G2 X47.146 Y47.146 Z13.050 I3.558 J-66.580 K0.000 F60000.000
G1 X47.146 Y47.146 Z10.050 F60000.000
G2 X3.558 Y-66.580 Z10.050 I-47.146 J-47.146 K0.000 F60000.000
G2 X-66.580 Y-3.558 Z10.050 I-3.558 J66.580 K0.000 F60000.000
G2 X-3.558 Y66.580 Z10.050 I66.580 J3.558 K0.000 F60000.000
G2 X47.146 Y47.146 Z10.050 I3.558 J-66.580 K0.000 F60000.000
G1 X47.146 Y47.146 Z7.050 F60000.000
G2 X3.558 Y-66.580 Z7.050 I-47.146 J-47.146 K0.000 F60000.000
G2 X-66.580 Y-3.558 Z7.050 I-3.558 J66.580 K0.000 F60000.000
G2 X-3.558 Y66.580 Z7.050 I66.580 J3.558 K0.000 F60000.000
G2 X47.146 Y47.146 Z7.050 I3.558 J-66.580 K0.000 F60000.000
G1 X47.146 Y47.146 Z4.050 F60000.000
G2 X38.572 Y-54.384 Z4.050 I-47.146 J-47.146 K0.000 F60000.000
G1 X38.572 Y-54.384 Z4.500 F60000.000
G2 X19.082 Y-63.886 Z4.500 I-38.572 J54.384 K0.000 F60000.000
G1 X19.082 Y-63.886 Z4.050 F60000.000
G2 X3.558 Y-66.580 Z4.050 I-19.082 J63.886 K0.000 F60000.000
G2 X-66.580 Y-3.558 Z4.050 I-3.558 J66.580 K0.000 F60000.000
G2 X-21.351 Y63.164 Z4.050 I66.580 J3.558 K0.000 F60000.000
G1 X-21.351 Y63.164 Z4.500 F60000.000
G2 X-3.558 Y66.580 Z4.500 I21.351 J-63.164 K0.000 F60000.000
G2 X0.040 Y66.675 Z4.500 I3.558 J-66.580 K0.000 F60000.000
G1 X0.040 Y66.675 Z4.050 F60000.000
G2 X47.146 Y47.146 Z4.050 I-0.040 J-66.675 K0.000 F60000.000
G1 X47.146 Y47.146 Z1.050 F60000.000
G2 X38.572 Y-54.384 Z1.050 I-47.146 J-47.146 K0.000 F60000.000
G1 X38.572 Y-54.384 Z4.500 F60000.000
G2 X19.082 Y-63.886 Z4.500 I-38.572 J54.384 K0.000 F60000.000
G1 X19.082 Y-63.886 Z1.050 F60000.000
G2 X3.558 Y-66.580 Z1.050 I-19.082 J63.886 K0.000 F60000.000
G2 X-66.580 Y-3.558 Z1.050 I-3.558 J66.580 K0.000 F60000.000
G2 X-21.351 Y63.164 Z1.050 I66.580 J3.558 K0.000 F60000.000
G1 X-21.351 Y63.164 Z4.500 F60000.000
G2 X-3.558 Y66.580 Z4.500 I21.351 J-63.164 K0.000 F60000.000
G2 X0.040 Y66.675 Z4.500 I3.558 J-66.580 K0.000 F60000.000
G1 X0.040 Y66.675 Z1.050 F60000.000
G2 X47.146 Y47.146 Z1.050 I-0.040 J-66.675 K0.000 F60000.000
G1 X47.146 Y47.146 Z-0.500 F60000.000
G2 X38.572 Y-54.384 Z-0.500 I-47.146 J-47.146 K0.000 F60000.000
G1 X38.572 Y-54.384 Z4.500 F60000.000
G2 X19.082 Y-63.886 Z4.500 I-38.572 J54.384 K0.000 F60000.000
G1 X19.082 Y-63.886 Z-0.500 F60000.000
G2 X3.558 Y-66.580 Z-0.500 I-19.082 J63.886 K0.000 F60000.000
G2 X-66.580 Y-3.558 Z-0.500 I-3.558 J66.580 K0.000 F60000.000
G2 X-21.351 Y63.164 Z-0.500 I66.580 J3.558 K0.000 F60000.000
G1 X-21.351 Y63.164 Z4.500 F60000.000
G2 X-3.558 Y66.580 Z4.500 I21.351 J-63.164 K0.000 F60000.000
G2 X0.040 Y66.675 Z4.500 I3.558 J-66.580 K0.000 F60000.000
G1 X0.040 Y66.675 Z-0.500 F60000.000
G2 X47.146 Y47.146 Z-0.500 I-0.040 J-66.675 K0.000 F60000.000
G0 X47.146 Y47.146 Z24.050
(Finish operation: DressupTag)
(Begin postamble)
M5
G17 G90
M2
